X:1
T:Il piu fido di me
T:Benedetto Ferrari
T:Source : Musiche  Varie a voce sola---Libro terzo---Venetia---B.Magni---1641. Editor : André Vierendeels (20/01/17).
T:Il piu fido di me
T:©
T:©
T:©
T:©
C:Benedetto Ferrari
Z:©
%%score 1 2
L:1/8
Q:1/4=80
M:6/8
K:G
V:1 treble-8 nm="Tenor" snm="T"
V:2 bass nm="MusicXML Part"
V:1
 z Bc A>BA | GEF G>GA | B6 | B F/G/A/F/ G E/F/G/E/ | F ^D/E/F/D/ EEE | AG>A FFF | BA>B ^Ge>d | %7
w: Il piu fi- do di|me nel gran Re- gno d'a-|mor|_ cer- * * * * to _ _ _|_ non _ _ _ è, ne mai|fu nè sa- rà, ne mai|fu ne sa- ra, O fe-|
w: Son co- stan- t'e sin-|cer fi- do Cam- pion del|a-|* mo- * * * * ro- * * *|* so- Ar- * * cier, tut- to|son dol- c'e pi- o, tut-|to son dol- c'e pi- o,|
w: Ni- vo pas- s''in a-|mar e nell' o- pr d'a-|mor|_ so _ _ _ _ Tut- * * *|* to _ _ _ far mia fè|mai man- che à, far mia|fè man- * che à, O|
 cB>A ^G2 A | A^GA A2 c | cBc cE>E | AG>A FF>F | BA>B ^G EF | ^G AB A2 B/A/- | G2 A/G/ =F3- | %14
w: li- ce co- lei che|m'a- me- rà, che m'a-|me- rà, O fe- li- ce|co- lei, O fe- li- ce|co- lei _ _ che _|m'a- me- * * * *|* * * rà,|
w: o be- * a- to|quel cor, che fa- ra|mi- o, O be- a- to|quel cor, O be- a- to|quel cor che fa- * *|ra mi- * * * *|* * * o,|
w: che gu- sto hà d'ha-|ver ch'i- o sen _|m'hau- rà, O che gu- sto|ha, _ O che gu- sto|hà d'ha- ver ch'i- o- *|sen m'hau- * * * *|* * * rà|
 F z x E ^DE |[M:3/8] E3 ::[M:6/8] z EF GAE | FDE FGD | E3 FGA | GAB cBA | BAG G3 | ^CDE DEF | %22
w: _ m'a- me- *|rà,|che si puo de- si-|ar di piu dolc' i- na|mar che pu- ro'af-|fet- to, e schiet- * ta|le _ al- tà,|le _ _ _ _ _|
w: _ fa- ra mi-|o,|io chi m'a- ma scher-|nir? Chi m'a- do- ra tra-|dit? Del- la don-|na in gan- nar mi guar-|di- * Di- o,|di- * * * * *|
w: _ o sen m'hau-|ra,|io non son di co-|lo, c'han- no di- vet- to'il|cor, che d'o- gni|guar- do al stra- le in|pez- * zi và,|in _ _ pez- * *|
 GFE FED | DDE F>F^G | Ae>d cB>A | ^G2 A AGA | A2 c cBc | cE>E AG>A | FF>F BA>B | ^G EF G AB | %30
w: al- * * * * *|ta, O fe- li- ce co-|lei, O fe- li- ce co-|lei, che m'a- me _|rà, che m'a me- *|ra O fe- li- ce co-|lei, O fe- li- ce co-|lei, che _ m'a- me- *|
w: Di- * * * * *|o; O be- a- to quel|cor, O be- a- to qual|cor, che fa- ra mi-|o, che fa- ra mi-|o, O be- a- to quel|cor, O be- a- to quel|cor, che _ fa- rà _|
w: zi- * * * * *|và, O che gu- sto _|hà O ch gu- sto _|hà, d'ha- ver ch'i- o|sen, ch'i- o sen m'hau-|re, O che gu- sto _|à O che gu- sto _|hà, ch'i- * o sen _|
 A2 B/A/ G2 A/G/ | F3- F z E- | E^DE !fermata!E3 :| %33
w: |ra, _ che|_ m'a- me- rà.|
w: mi- * * * * *|o, _ che|_ fa- rà mio.|
w: m'hau- * * * * *|rà _ ch'io|_ sen m'hau- ra.|
V:2
"^BC" E,3 ^D,3 | E,2 D, C,3 | B,,B,,/^C,/^D,/E,/ C,C,/D,/E,/C,/ | ^D,3 E,3 | B,,3 C,3 | A,,3 D,3 | %6
 B,,3 E,3 | D,3 E,2 =F, | D,E,E,, A,,E,=F, | G, G,,2 C,3 | ^C,3 D,3 | ^D,3 E,3 | D, E,2 F, ^D,2 | %13
 E, ^C,2 D, B,,2 | C,G,,A,, B,,3 |[M:3/8] E,,3 ::[M:6/8] z E,D, ^C,3 | D,2 C, B,,3 | C,D,E, D,3 | %19
 E,3 C,3 | D,3 G,,3 | A,,3 B,,3 | G,,3 A,,3 | D,,D,C, B,,3 | A,,3 D,3 | E,2 =F, D,E,E,, | %26
 A,,E,=F, G, G,,2 | C,3 ^C,3 | D,3 ^D,3 | E,3 D, E,2 | F, ^D,2 E, ^C,2 | D, B,,2 C,G,,A,, | %32
 B,,3 !fermata!E,,3 :| %33

